svgs/duotone/transporter-4.svg

<svg xmlns="http://www.w3.org/2000/svg" viewBox="0 0 512 512"><!-- Font Awesome Pro 6.0.0-alpha2 by @fontawesome - https://fontawesome.com License - https://fontawesome.com/license (Commercial License) --><defs><style>.fa-secondary{opacity:.4}</style></defs><path d="M509.75 172.375L480 160L467.625 130.25C466.875 128.875 465.5 128 464 128S461.125 128.875 460.375 130.25L448 160L418.25 172.375C416.875 173.125 416 174.5 416 176S416.875 178.875 418.25 179.625L448 192L460.375 221.75C461.125 223.125 462.5 224 464 224S466.875 223.125 467.625 221.75L480 192L509.75 179.625C511.125 178.875 512 177.5 512 176S511.125 173.125 509.75 172.375ZM93.75 396.375L64 384L51.625 354.25C50.875 352.875 49.5 352 48 352S45.125 352.875 44.375 354.25L32 384L2.25 396.375C0.875 397.125 0 398.5 0 400S0.875 402.875 2.25 403.625L32 416L44.375 445.75C45.125 447.125 46.5 448 48 448S50.875 447.125 51.625 445.75L64 416L93.75 403.625C95.125 402.875 96 401.5 96 400S95.125 397.125 93.75 396.375ZM144 224H368C376.844 224 384 216.844 384 208S376.844 192 368 192H144C135.156 192 128 199.156 128 208S135.156 224 144 224ZM224 32H288C296.844 32 304 24.844 304 16S296.844 0 288 0H224C215.156 0 208 7.156 208 16S215.156 32 224 32ZM224 96H288C296.844 96 304 88.844 304 80S296.844 64 288 64H224C215.156 64 208 71.156 208 80S215.156 96 224 96ZM176 160H336C344.844 160 352 152.844 352 144S344.844 128 336 128H176C167.156 128 160 135.156 160 144S167.156 160 176 160ZM400 256H112C103.156 256 96 263.156 96 272S103.156 288 112 288H400C408.844 288 416 280.844 416 272S408.844 256 400 256ZM176 352H336C344.844 352 352 344.844 352 336S344.844 320 336 320H176C167.156 320 160 327.156 160 336S167.156 352 176 352ZM176 416H336C344.844 416 352 408.844 352 400S344.844 384 336 384H176C167.156 384 160 391.156 160 400S167.156 416 176 416Z" class="fa-secondary"/><path d="M384 448H128C110.375 448 96 462.375 96 480V512H416V480C416 462.375 401.625 448 384 448Z" class="fa-primary"/></svg>

<svg xmlns="http://www.w3.org/2000/svg" viewBox="0 0 512 512"><!--! Font Awesome Pro 6.3.0 by @fontawesome - https://fontawesome.com License - https://fontawesome.com/license (Commercial License) Copyright 2023 Fonticons, Inc. --><defs><style>.fa-secondary{opacity:.4}</style></defs><path class="fa-primary" d="M384 448H128c-17.62 0-32 14.38-32 32v32h320v-32C416 462.4 401.6 448 384 448z"/><path class="fa-secondary" d="M509.8 172.4L480 160l-12.38-29.75C466.9 128.9 465.5 128 464 128s-2.875 .875-3.625 2.25L448 160l-29.75 12.38C416.9 173.1 416 174.5 416 176s.875 2.875 2.25 3.625L448 192l12.38 29.75C461.1 223.1 462.5 224 464 224s2.875-.875 3.625-2.25L480 192l29.75-12.38C511.1 178.9 512 177.5 512 176S511.1 173.1 509.8 172.4zM93.75 396.4L64 384l-12.38-29.75C50.88 352.9 49.5 352 48 352s-2.875 .875-3.625 2.25L32 384l-29.75 12.38C.875 397.1 0 398.5 0 400s.875 2.875 2.25 3.625L32 416l12.38 29.75C45.13 447.1 46.5 448 48 448s2.875-.875 3.625-2.25L64 416l29.75-12.38C95.13 402.9 96 401.5 96 400S95.13 397.1 93.75 396.4zM144 224h224C376.8 224 384 216.8 384 208S376.8 192 368 192h-224C135.2 192 128 199.2 128 208S135.2 224 144 224zM224 32h64c8.844 0 16-7.156 16-16S296.8 0 288 0H224C215.2 0 208 7.156 208 16S215.2 32 224 32zM224 96h64c8.844 0 16-7.156 16-16S296.8 64 288 64H224C215.2 64 208 71.16 208 80S215.2 96 224 96zM176 160h160C344.8 160 352 152.8 352 144S344.8 128 336 128h-160C167.2 128 160 135.2 160 144S167.2 160 176 160zM400 256h-288C103.2 256 96 263.2 96 272S103.2 288 112 288h288C408.8 288 416 280.8 416 272S408.8 256 400 256zM176 352h160c8.844 0 16-7.156 16-16S344.8 320 336 320h-160C167.2 320 160 327.2 160 336S167.2 352 176 352zM176 416h160c8.844 0 16-7.156 16-16S344.8 384 336 384h-160C167.2 384 160 391.2 160 400S167.2 416 176 416z"/></svg>
